!!!SOCIAL_FUNCTION:	songs connected with the treatment of the sick
!!!PDT:	1932
!!!OTL: No_69_I_Use_My_Medicine_to_Cure_the_Sick.krn
!!!REG: Wisconsin
!!!LANG: Non-Tone
!!!LING_GROUP: Algonquin
**kern
*staff1
=1-
*clefF4
*k[]
*M3/4
4d\
4d\
12d\L
12B\
24A\Jk
24r
=2
4d\
4d\
12d\L
12e\
12d\J
=3
4c\
4c\
12c\L
12A\
12G\J
=4||
*M2/4
4A\
4A\
=5
8A\
8r
8B\L
8A\J
=6||
*M3/4
4G\
4G\
12G\L
12F\
24E\Jk
24r
=7
4G\
4G\
12G\L
12A\
12A\J
=8
4G\
4G\
12G\L
12E\
12D\J
=9||
*M2/4
4D\
8D\L
16D\L
16D\JJ
=10
8D\
16r
16B\
12B\L
12A\
12G\J
=11||
=
*M3/4
4A\
4A\
12A\L
12B\
12A\J
=12
4G\
4G\
12G\L
12F\
24E\Jk
24r
=13
4G\
4G\
12G\L
12A\
12A\J
=14
4G\
4G\
12G\L
12E\
12D\J
=15||
*M2/4
4D\
8D\L
[8D\J
=16
8D\L]
16D\L
16D\JJ
8D\
8r
=17
*M3/4
4d\
4d\
12d\L
12B\
24A\Jk
24r
=18
4d\
4d\
12d\L
12e\
12d\J
=19
4c\
4c\
12c\L
12A\
24G\Jk
24r
==:|!
*-
